X: 1182
T: Paddy Ryan's Dream
M:C|
L:1/8
R:Reel
B:O'Neill's 1182
N:2nd setting
N:Collected by McFadden
Z:Transcribed by Trish O'Neil
K:Am
cB \
|: AE{F}EE cBAG | EGDC B,A,G,B, \
|1 A,>EA,>E (3.A,.A,.A, A,>E | ABcB AedB \
:|2 A, {B,}A,G,A, B,C E2 | AcBGA2(3Bcd |
| eaa^g age^f | (3gfe dc BGGf \
| eaa^g age^f | (3gfe df eaag |
| ea{b}a^g age^f | g^fgd BcdB \
| (3ABc (3Bcd cbag | fde^fg2fg |]


